src/symbolic/devices/media-tape-symbolic.svg

<svg xmlns="http://www.w3.org/2000/svg" width="16" height="16"><path d="M3 2C1 2 1 4 1 4v8s0 2 2 2h10s2 0 2-2V4c0-2-2-2-2-2zm2 4c1.1 0 2 .9 2 2 0 .36-.11.71-.28 1h2.56C9.11 8.71 9 8.36 9 8c0-1.1.9-2 2-2s2 .9 2 2-.9 2-2 2H5c-1.1 0-2-.9-2-2s.9-2 2-2zm0 1c-.55 0-1 .45-1 1s.45 1 1 1 1-.45 1-1-.45-1-1-1zm6 0c-.55 0-1 .45-1 1s.45 1 1 1 1-.45 1-1-.45-1-1-1z" fill="#444"/></svg>

<svg xmlns="http://www.w3.org/2000/svg" width="16" height="16" version="1.1">
 <path style="fill:#444444" d="M 3,2 C 1,2 1,4 1,4 V 12 C 1,12 1,14 3,14 H 13 C 13,14 15,14 15,12 V 4 C 15,2 13,2 13,2 Z M 5,6 C 6.1,6 7,6.9 7,8 7,8.36 6.89,8.71 6.72,9 H 9.28 C 9.11,8.71 9,8.36 9,8 9,6.9 9.9,6 11,6 12.1,6 13,6.9 13,8 13,9.1 12.1,10 11,10 H 5 C 3.9,10 3,9.1 3,8 3,6.9 3.9,6 5,6 Z M 5,7 C 4.45,7 4,7.45 4,8 4,8.55 4.45,9 5,9 5.55,9 6,8.55 6,8 6,7.45 5.55,7 5,7 Z M 11,7 C 10.45,7 10,7.45 10,8 10,8.55 10.45,9 11,9 11.55,9 12,8.55 12,8 12,7.45 11.55,7 11,7 Z"/>
</svg>
